X:1
T: nebal nebal sir dix sust
N: V0001
O: Europa, Mitteleuropa, Schweiz, Oberwallis
R: Brauchtum, Beschwoerung (Nebel)
M: 2/4
L: 1/8
K: G
=FFFF | =F2G2 |
FFFF | G=F(3FFF
FFFF | G2z2 |
=FFFF | =F2G2 |
FFFF | =FFG2 |
FFFF | =FFG2 | z4 |
=FFFF | =FFGF |
FFFF | =FFGz

@@@ Tune index: 9730
